X: 20681
T: The March
%R: strathspey, march
B: James Oswald "The Caledonian Pocket Companion" v.2 p.68 #1
Z: 2019 John Chambers <jc:trillian.mit.edu>
M: 2/4
L: 1/16
K: Dmix
|:\
DD3 F3D | E4 TB4 | DD3 F3D | A4 Tf4 ::\
(af3) d3F | E4 TB4 | (af3) d3F | A4 d4 :|
|:\
DA3 F3A | EB3 G3B | DA3 F3d | A4 Tf4 ::\
af3 d3A | TB3ATB3A | af3 d3F | A4 d4 :|
|:\
FF3 F3A | EE3 TE3F| DDD2 FFF2 | A4 Tf4 ::\
aaa2 Tf3e | eee2 d3B | AAA2 F3A | B4 d4 :|


